assets/images/cabinet/bill.svg

<svg width="16" height="20" viewBox="0 0 16 20" fill="none" xmlns="http://www.w3.org/2000/svg">
<path d="M1.01993 19.9559L2.6636 19.0727L4.30726 19.9559C4.36116 19.9848 4.42172 20 4.48328 20C4.54485 20 4.60541 19.9848 4.6593 19.9559L6.30297 19.0727L7.94664 19.9559C8.00053 19.9848 8.06109 20 8.12266 20C8.18422 20 8.24478 19.9848 8.29868 19.9559L9.94234 19.0727L11.586 19.9559C11.6399 19.9848 11.7005 20 11.762 20C11.8236 20 11.8842 19.9848 11.9381 19.9559L13.5817 19.0727L15.2254 19.9559C15.2807 19.9853 15.343 20.0003 15.4061 19.9993C15.4692 19.9983 15.5309 19.9814 15.5853 19.9502C15.6396 19.919 15.6847 19.8746 15.7161 19.8214C15.7475 19.7682 15.7641 19.7079 15.7644 19.6465V1.33111C15.764 1.2693 15.747 1.20866 15.715 1.15521C15.6831 1.10177 15.6373 1.05739 15.5823 1.02649L13.7614 0.0488456C13.7075 0.0199034 13.6469 0.00472301 13.5854 0.00472301C13.5238 0.00472301 13.4632 0.0199034 13.4093 0.0488456L11.7657 0.932028L10.1196 0.0441227C10.0657 0.0151805 10.0051 0 9.94356 0C9.88199 0 9.82143 0.0151805 9.76754 0.0441227L8.12387 0.927305L6.4802 0.0441227C6.42631 0.0151805 6.36575 0 6.30418 0C6.24262 0 6.18206 0.0151805 6.12816 0.0441227L4.4845 0.927305L2.8384 0.0441227C2.78451 0.0151805 2.72395 0 2.66238 0C2.60082 0 2.54026 0.0151805 2.48636 0.0441227L0.667889 1.02649C0.610777 1.05688 0.563086 1.10161 0.52978 1.15601C0.496474 1.21042 0.478772 1.27252 0.478516 1.33584V19.6465C0.478764 19.7079 0.495401 19.7682 0.526798 19.8214C0.558194 19.8746 0.603272 19.919 0.657614 19.9502C0.711956 19.9814 0.773697 19.9983 0.836786 19.9993C0.899876 20.0003 0.962149 19.9853 1.0175 19.9559H1.01993ZM1.2093 1.53656L2.66602 0.75492L4.30969 1.6381C4.36359 1.66704 4.42415 1.68222 4.48571 1.68222C4.54728 1.68222 4.60784 1.66704 4.66173 1.6381L6.3054 0.75492L7.94906 1.6381C8.00296 1.66704 8.06352 1.68222 8.12508 1.68222C8.18665 1.68222 8.24721 1.66704 8.3011 1.6381L9.94477 0.75492L11.5884 1.6381C11.6423 1.66704 11.7029 1.68222 11.7645 1.68222C11.826 1.68222 11.8866 1.66704 11.9405 1.6381L13.5841 0.75492L15.0409 1.53656V19.0467L13.7614 18.3595C13.7075 18.3306 13.6469 18.3154 13.5854 18.3154C13.5238 18.3154 13.4632 18.3306 13.4093 18.3595L11.7657 19.2427L10.1196 18.3595C10.0657 18.3306 10.0051 18.3154 9.94356 18.3154C9.88199 18.3154 9.82143 18.3306 9.76754 18.3595L8.12387 19.2427L6.4802 18.3595C6.42631 18.3306 6.36575 18.3154 6.30418 18.3154C6.24262 18.3154 6.18206 18.3306 6.12816 18.3595L4.4845 19.2427L2.8384 18.3595C2.78451 18.3306 2.72395 18.3154 2.66238 18.3154C2.60082 18.3154 2.54026 18.3306 2.48636 18.3595L1.20688 19.0467L1.2093 1.53656Z" fill="#242424"/>
<path d="M3.13732 4.25223H13.1086C13.173 4.25223 13.2347 4.22735 13.2802 4.18306C13.3258 4.13878 13.3514 4.07871 13.3514 4.01608C13.3514 3.95345 13.3258 3.89339 13.2802 3.8491C13.2347 3.80482 13.173 3.77994 13.1086 3.77994H3.13732C3.07293 3.77994 3.01117 3.80482 2.96564 3.8491C2.92011 3.89339 2.89453 3.95345 2.89453 4.01608C2.89453 4.07871 2.92011 4.13878 2.96564 4.18306C3.01117 4.22735 3.07293 4.25223 3.13732 4.25223Z" fill="#242424"/>
<path d="M3.13732 6.61604H10.5884C10.6528 6.61604 10.7146 6.59116 10.7601 6.54688C10.8056 6.50259 10.8312 6.44253 10.8312 6.3799C10.8312 6.31727 10.8056 6.2572 10.7601 6.21292C10.7146 6.16863 10.6528 6.14375 10.5884 6.14375H3.13732C3.07293 6.14375 3.01117 6.16863 2.96564 6.21292C2.92011 6.2572 2.89453 6.31727 2.89453 6.3799C2.89453 6.44253 2.92011 6.50259 2.96564 6.54688C3.01117 6.59116 3.07293 6.61604 3.13732 6.61604Z" fill="#242424"/>
<path d="M3.13732 8.97986H12.3632C12.4276 8.97986 12.4894 8.95498 12.5349 8.91069C12.5804 8.86641 12.606 8.80634 12.606 8.74371C12.606 8.68108 12.5804 8.62102 12.5349 8.57673C12.4894 8.53245 12.4276 8.50757 12.3632 8.50757H3.13732C3.07293 8.50757 3.01117 8.53245 2.96564 8.57673C2.92011 8.62102 2.89453 8.68108 2.89453 8.74371C2.89453 8.80634 2.92011 8.86641 2.96564 8.91069C3.01117 8.95498 3.07293 8.97986 3.13732 8.97986Z" fill="#242424"/>
<path d="M3.13732 11.3437H11.3508C11.4152 11.3437 11.4769 11.3188 11.5225 11.2745C11.568 11.2302 11.5936 11.1702 11.5936 11.1075C11.5936 11.0449 11.568 10.9848 11.5225 10.9405C11.4769 10.8963 11.4152 10.8714 11.3508 10.8714H3.13732C3.07293 10.8714 3.01117 10.8963 2.96564 10.9405C2.92011 10.9848 2.89453 11.0449 2.89453 11.1075C2.89453 11.1702 2.92011 11.2302 2.96564 11.2745C3.01117 11.3188 3.07293 11.3437 3.13732 11.3437Z" fill="#242424"/>
<path d="M3.13732 13.7075H8.33781C8.4022 13.7075 8.46396 13.6826 8.50949 13.6383C8.55502 13.594 8.5806 13.534 8.5806 13.4713C8.5806 13.4087 8.55502 13.3487 8.50949 13.3044C8.46396 13.2601 8.4022 13.2352 8.33781 13.2352H3.13732C3.07293 13.2352 3.01117 13.2601 2.96564 13.3044C2.92011 13.3487 2.89453 13.4087 2.89453 13.4713C2.89453 13.534 2.92011 13.594 2.96564 13.6383C3.01117 13.6826 3.07293 13.7075 3.13732 13.7075Z" fill="#242424"/>
<path d="M3.13732 16.0689H10.1029C10.1673 16.0689 10.229 16.0441 10.2745 15.9998C10.3201 15.9555 10.3457 15.8954 10.3457 15.8328C10.3457 15.7702 10.3201 15.7101 10.2745 15.6658C10.229 15.6215 10.1673 15.5966 10.1029 15.5966H3.13732C3.07293 15.5966 3.01117 15.6215 2.96564 15.6658C2.92011 15.7101 2.89453 15.7702 2.89453 15.8328C2.89453 15.8954 2.92011 15.9555 2.96564 15.9998C3.01117 16.0441 3.07293 16.0689 3.13732 16.0689Z" fill="#242424"/>
</svg>

<svg width="16" height="20" fill="none" xmlns="http://www.w3.org/2000/svg"><path d="M1.02 19.956l1.644-.883 1.643.883a.373.373 0 00.352 0l1.644-.883 1.644.883a.373.373 0 00.352 0l1.643-.883 1.644.883a.373.373 0 00.352 0l1.644-.883 1.643.883a.373.373 0 00.491-.135.347.347 0 00.048-.175V1.331a.36.36 0 00-.182-.305L13.762.05a.372.372 0 00-.353 0l-1.643.883L10.12.044a.372.372 0 00-.352 0L8.124.927 6.48.044a.372.372 0 00-.352 0L4.484.927 2.838.044a.372.372 0 00-.352 0l-1.818.982a.347.347 0 00-.19.31v18.31a.347.347 0 00.18.304.372.372 0 00.36.006h.002zm.19-18.42l1.455-.78 1.644.883a.372.372 0 00.352 0L6.305.755l1.644.883a.372.372 0 00.352 0L9.945.755l1.643.883a.372.372 0 00.353 0l1.643-.883 1.457.782v17.51l-1.28-.688a.373.373 0 00-.352 0l-1.643.884-1.646-.883a.373.373 0 00-.352 0l-1.644.883-1.644-.883a.373.373 0 00-.352 0l-1.644.883-1.646-.883a.373.373 0 00-.352 0l-1.28.687.003-17.51z" fill="#242424"/><path d="M3.137 4.252h9.972a.246.246 0 00.171-.069.233.233 0 000-.334.246.246 0 00-.171-.07H3.137a.246.246 0 00-.171.07.233.233 0 000 .334c.045.044.107.07.171.07zm0 2.364h7.451a.246.246 0 00.172-.07.233.233 0 000-.333.246.246 0 00-.172-.07h-7.45a.246.246 0 00-.172.07.233.233 0 000 .334.246.246 0 00.171.069zm0 2.364h9.226a.246.246 0 00.172-.07.233.233 0 000-.333.246.246 0 00-.172-.07H3.137a.246.246 0 00-.171.07.233.233 0 000 .334.246.246 0 00.171.069zm0 2.364h8.214a.246.246 0 00.171-.07.233.233 0 000-.333.247.247 0 00-.171-.07H3.137a.247.247 0 00-.171.07.233.233 0 000 .333c.045.045.107.07.171.07zm0 2.363h5.2a.246.246 0 00.172-.069.233.233 0 000-.334.246.246 0 00-.171-.069h-5.2a.246.246 0 00-.172.07.233.233 0 000 .333c.045.045.107.07.171.07zm0 2.362h6.966a.246.246 0 00.171-.07.233.233 0 000-.333.246.246 0 00-.171-.07H3.137a.246.246 0 00-.171.07.233.233 0 000 .334.246.246 0 00.171.069z" fill="#242424"/></svg>
